services/static-webserver/client/source/resource/osparc/Sim4Life_full_logo_white.svg

<?xml version="1.0" encoding="UTF-8"?>
<svg id="Layer_2" data-name="Layer 2" xmlns="http://www.w3.org/2000/svg" xmlns:xlink="http://www.w3.org/1999/xlink" viewBox="0 0 323.26 64.25">
  <defs>
    <style>
      .cls-1 {
        clip-path: url(#clippath);
      }

      .cls-2, .cls-3 {
        fill: none;
      }

      .cls-2, .cls-4, .cls-5 {
        stroke-width: 0px;
      }

      .cls-6 {
        clip-path: url(#clippath-1);
      }

      .cls-3 {
        stroke: #fede0f;
        stroke-miterlimit: 10;
        stroke-width: 1.59px;
      }

      .cls-4 {
        fill: #fede0f;
      }

      .cls-5 {
        fill: #fff;
      }
    </style>
    <clipPath id="clippath">
      <rect class="cls-2" y="0" width="323.26" height="63.24"/>
    </clipPath>
    <clipPath id="clippath-1">
      <rect class="cls-2" y="0" width="323.26" height="63.24"/>
    </clipPath>
  </defs>
  <g id="Layer_1-2" data-name="Layer 1">
    <g>
      <g class="cls-1">
        <path class="cls-4" d="m167.38.79c-.94,0-1.57.63-1.57,1.57v30.27h-40.78V2.36c0-.86-.71-1.57-1.65-1.57s-1.57.63-1.57,1.57v31.92c0,1.02.63,1.65,1.57,1.65h42.43v25.96c0,.94.63,1.57,1.57,1.57s1.65-.63,1.65-1.57V2.36c0-.86-.7-1.57-1.65-1.57h0Z"/>
        <path class="cls-3" d="m167.38.79c-.94,0-1.57.63-1.57,1.57v30.27h-40.78V2.36c0-.86-.71-1.57-1.65-1.57s-1.57.63-1.57,1.57v31.92c0,1.02.63,1.65,1.57,1.65h42.43v25.96c0,.94.63,1.57,1.57,1.57s1.65-.63,1.65-1.57V2.36c0-.86-.7-1.57-1.65-1.57h0Z"/>
      </g>
      <path class="cls-5" d="m32.1,33.86H1.12c-.67,0-1.12-.45-1.12-1.12v-11.37c0-.56.56-1.12,1.06-1.12h32.15c.62,0,1.12.5,1.12,1.12,0,.67-.45,1.12-1.12,1.12H2.24v9.13h30.98c.67,0,1.12.45,1.12,1.12v11.31c0,.67-.45,1.12-1.12,1.12H1.12c-.67,0-1.12-.45-1.12-1.12s.45-1.12,1.12-1.12h30.98v-9.07h0Z"/>
      <path class="cls-5" d="m73.94,43.77c0,.67-.45,1.12-1.12,1.12s-1.12-.45-1.12-1.12v-22.46c0-.62.45-1.12,1.12-1.12h31.87c.62,0,1.06.5,1.06,1.12v22.46c0,.67-.45,1.12-1.12,1.12-.62,0-1.06-.45-1.06-1.12v-21.34h-13.72v21.34c0,.67-.45,1.12-1.12,1.12s-1.12-.45-1.12-1.12v-21.34h-13.67v21.34h0Z"/>
      <g class="cls-6">
        <path class="cls-5" d="m209.83,42.65c.67,0,1.12.45,1.12,1.12s-.45,1.12-1.12,1.12h-16.86c-.67,0-1.12-.45-1.12-1.12V1.2c0-.67.45-1.12,1.12-1.12s1.12.45,1.12,1.12v41.45h15.74Z"/>
        <path class="cls-5" d="m279.23,38.75c.62,0,1.06.45,1.06,1.12s-.45,1.12-1.06,1.12h-30.92v21.45c0,.67-.45,1.12-1.12,1.12s-1.12-.45-1.12-1.12V19.87c0-.67.45-1.12,1.12-1.12h31.98c.62,0,1.06.45,1.06,1.12s-.45,1.12-1.06,1.12h-30.86v17.76h30.92Z"/>
      </g>
      <path class="cls-5" d="m291.27,20.99h29.8v10.17h-29.8v-10.17h0Zm30.92,12.33c.62,0,1.06-.26,1.06-.65v-13.17c0-.39-.39-.65-1.06-.65h-31.98c-.73,0-1.18.26-1.18.65v24.83c0,.39.5.65,1.18.65h31.98c.62,0,1.06-.65,1.06-1.05s-.39-1.29-1-1.29h-30.98v-9.33h30.92Z"/>
      <path class="cls-5" d="m53.94,18.76c-.62,0-1.06.47-1.06,1.12v23.83c0,.71.45,1.18,1.06,1.18.67,0,1.12-.47,1.12-1.18v-23.83c0-.65-.45-1.12-1.12-1.12h0Z"/>
      <path class="cls-5" d="m229.55,18.69c-.62,0-1.06.47-1.06,1.13v23.89c0,.71.45,1.19,1.06,1.19.67,0,1.12-.47,1.12-1.19v-23.89c0-.65-.45-1.13-1.12-1.13h0Z"/>
    </g>
  </g>
</svg>

<?xml version="1.0" encoding="UTF-8"?>
<svg width="324px" height="64px" viewBox="0 0 324 64" version="1.1" xmlns="http://www.w3.org/2000/svg" xmlns:xlink="http://www.w3.org/1999/xlink">
    <title>Sim4Life_full_logo_white</title>
    <defs>
        <rect id="path-1" x="0" y="0" width="323.26" height="63.24"></rect>
        <rect id="path-3" x="0" y="0" width="323.26" height="63.24"></rect>
    </defs>
    <g id="Page-1" stroke="none" stroke-width="1" fill="none" fill-rule="evenodd">
        <g id="Sim4Life_full_logo_white">
            <g id="Clipped">
                <mask id="mask-2" fill="white">
                    <use xlink:href="#path-1"></use>
                </mask>
                <g id="Rectangle"></g>
                <g id="Group" mask="url(#mask-2)">
                    <g transform="translate(121.81, 0.79)" id="Path">
                        <path d="M45.57,6.66133815e-16 C44.63,6.66133815e-16 44,0.63 44,1.57 L44,31.84 L3.22,31.84 L3.22,1.57 C3.22,0.71 2.51,6.66133815e-16 1.57,6.66133815e-16 C0.63,6.66133815e-16 0,0.63 0,1.57 L0,33.49 C0,34.51 0.63,35.14 1.57,35.14 L44,35.14 L44,61.1 C44,62.04 44.63,62.67 45.57,62.67 C46.51,62.67 47.22,62.04 47.22,61.1 L47.22,1.57 C47.22,0.71 46.52,6.66133815e-16 45.57,6.66133815e-16 L45.57,6.66133815e-16 Z" stroke="none" fill="#FEDE0F" fill-rule="nonzero"></path>
                        <path d="M45.57,6.66133815e-16 C44.63,6.66133815e-16 44,0.63 44,1.57 L44,31.84 L3.22,31.84 L3.22,1.57 C3.22,0.71 2.51,6.66133815e-16 1.57,6.66133815e-16 C0.63,6.66133815e-16 0,0.63 0,1.57 L0,33.49 C0,34.51 0.63,35.14 1.57,35.14 L44,35.14 L44,61.1 C44,62.04 44.63,62.67 45.57,62.67 C46.51,62.67 47.22,62.04 47.22,61.1 L47.22,1.57 C47.22,0.71 46.52,6.66133815e-16 45.57,6.66133815e-16 L45.57,6.66133815e-16 Z" stroke="#FEDE0F" stroke-width="1.59" fill="none"></path>
                    </g>
                </g>
            </g>
            <path d="M32.1,33.86 L1.12,33.86 C0.45,33.86 0,33.41 0,32.74 L0,21.37 C0,20.81 0.56,20.25 1.06,20.25 L33.21,20.25 C33.83,20.25 34.33,20.75 34.33,21.37 C34.33,22.04 33.88,22.49 33.21,22.49 L2.24,22.49 L2.24,31.62 L33.22,31.62 C33.89,31.62 34.34,32.07 34.34,32.74 L34.34,44.05 C34.34,44.72 33.89,45.17 33.22,45.17 L1.12,45.17 C0.45,45.17 0,44.72 0,44.05 C0,43.38 0.45,42.93 1.12,42.93 L32.1,42.93 L32.1,33.86 L32.1,33.86 L32.1,33.86 Z" id="Path" fill="#FFFFFF" fill-rule="nonzero"></path>
            <path d="M73.94,43.77 C73.94,44.44 73.49,44.89 72.82,44.89 C72.15,44.89 71.7,44.44 71.7,43.77 L71.7,21.31 C71.7,20.69 72.15,20.19 72.82,20.19 L104.69,20.19 C105.31,20.19 105.75,20.69 105.75,21.31 L105.75,43.77 C105.75,44.44 105.3,44.89 104.63,44.89 C104.01,44.89 103.57,44.44 103.57,43.77 L103.57,22.43 L89.85,22.43 L89.85,43.77 C89.85,44.44 89.4,44.89 88.73,44.89 C88.06,44.89 87.61,44.44 87.61,43.77 L87.61,22.43 L73.94,22.43 L73.94,43.77 L73.94,43.77 L73.94,43.77 Z" id="Path" fill="#FFFFFF" fill-rule="nonzero"></path>
            <g id="Clipped">
                <mask id="mask-4" fill="white">
                    <use xlink:href="#path-3"></use>
                </mask>
                <g id="Rectangle"></g>
                <g id="Group" mask="url(#mask-4)" fill="#FFFFFF" fill-rule="nonzero">
                    <g transform="translate(191.85, 0.08)" id="Path">
                        <path d="M17.98,42.57 C18.65,42.57 19.1,43.02 19.1,43.69 C19.1,44.36 18.65,44.81 17.98,44.81 L1.12,44.81 C0.45,44.81 0,44.36 0,43.69 L0,1.12 C0,0.45 0.45,1.55431223e-15 1.12,1.55431223e-15 C1.79,1.55431223e-15 2.24,0.45 2.24,1.12 L2.24,42.57 L17.98,42.57 L17.98,42.57 Z"></path>
                        <path d="M87.38,38.67 C88,38.67 88.44,39.12 88.44,39.79 C88.44,40.46 87.99,40.91 87.38,40.91 L56.46,40.91 L56.46,62.36 C56.46,63.03 56.01,63.48 55.34,63.48 C54.67,63.48 54.22,63.03 54.22,62.36 L54.22,19.79 C54.22,19.12 54.67,18.67 55.34,18.67 L87.32,18.67 C87.94,18.67 88.38,19.12 88.38,19.79 C88.38,20.46 87.93,20.91 87.32,20.91 L56.46,20.91 L56.46,38.67 L87.38,38.67 Z"></path>
                    </g>
                </g>
            </g>
            <path d="M291.27,20.99 L321.07,20.99 L321.07,31.16 L291.27,31.16 L291.27,20.99 L291.27,20.99 L291.27,20.99 Z M322.19,33.32 C322.81,33.32 323.25,33.06 323.25,32.67 L323.25,19.5 C323.25,19.11 322.86,18.85 322.19,18.85 L290.21,18.85 C289.48,18.85 289.03,19.11 289.03,19.5 L289.03,44.33 C289.03,44.72 289.53,44.98 290.21,44.98 L322.19,44.98 C322.81,44.98 323.25,44.33 323.25,43.93 C323.25,43.53 322.86,42.64 322.25,42.64 L291.27,42.64 L291.27,33.31 L322.19,33.31 L322.19,33.32 Z" id="Shape" fill="#FFFFFF" fill-rule="nonzero"></path>
            <path d="M53.94,18.76 C53.32,18.76 52.88,19.23 52.88,19.88 L52.88,43.71 C52.88,44.42 53.33,44.89 53.94,44.89 C54.61,44.89 55.06,44.42 55.06,43.71 L55.06,19.88 C55.06,19.23 54.61,18.76 53.94,18.76 L53.94,18.76 Z" id="Path" fill="#FFFFFF" fill-rule="nonzero"></path>
            <path d="M229.55,18.69 C228.93,18.69 228.49,19.16 228.49,19.82 L228.49,43.71 C228.49,44.42 228.94,44.9 229.55,44.9 C230.22,44.9 230.67,44.43 230.67,43.71 L230.67,19.82 C230.67,19.17 230.22,18.69 229.55,18.69 L229.55,18.69 Z" id="Path" fill="#FFFFFF" fill-rule="nonzero"></path>
        </g>
    </g>
</svg>
